X:1
T:Title
%%score { ( 1 2 5 ) | ( 3 4 ) }
L:1/8
Q:1/4=112
M:4/4
K:G
V:1 treble nm="Grand Piano"
V:2 treble 
V:5 treble 
V:3 bass 
V:4 bass 
V:1
 .G2 z2 z4 | .G2 z2 z4 | .G2 z2 .G2 z2 | .G2 z2 F4[K:bass] | .A2 z2 z4 | .A2 z2 z4 | %6
w: ?????~????||||||
 .A2 z2 .A2 z2 | .B2 z2 z4 | .B2 z2 z4 | .B2 z2 .B2 z2 | .c2 z2 z4 | .d2 z2 G4 | .G2 z2 z4 | %13
w: |||||||
 [CEG]2 .F2 [G,B,E]4 | .G2 z2 .G2 z2 | .G2 z2 F4[K:bass] | .A2 z2 z4 | .A2 z2 z4 | .A2 z2 .A2 z2 | %19
w: ||||||
 .B2 z2 z4 | .B2 z2 z4 | .B2 z2 .B2 z2 | .c2 z2 z4 | .d2 z2 G4 | .G2 z2 z4 | E2 z2 z4 | %26
w: |||||||
 GG F2 E2 FG | A2 .G2 [^DFB]4 | AB c2 [EGB]4 | [Ac]2 .B2 [^DFB]2 [DFB]2 | .G2 B2 z2 A,2 | %31
w: |||||
 G2 [A,A]2 z2[K:bass] z E | z4 [B,^DF]4[K:bass] | ^D[K:treble]E F2 B,2 EF | G2 .F2 [G,B,E]4 | %35
w: ||||
 ^DE F2[K:bass] z2 F,2 | EFGG FG A2 | z2 [EGB]6 | [EGB]2 [EGB]c BA [A,A]2 | [DFA]2 [A,DFA]B AG F2 | %40
w: |||||
 .[CEG]2 [G,CEG]A GF [^DF]2 | B>A GA GF .[B,^DG]2 | [G,B,E]8 | .G2 z2 z4 | .G2 z2 z4 | %45
w: |||||
 .G2 z2 .G2 z2 | .G2 z2 F4[K:bass] | .A2 z2 z4 | .A2 z2 z4 | .A2 z2 .A2 z2 | .B2 z2 z4 | %51
w: ||||||
 .B2 z2 z4 | .B2 z2 .B2 z2 | .c2 z2 z4 |[M:8/4] .d4 G4 z8 |] %55
w: ||||
V:2
 [B,E]4 [B,E]4 | [B,E]4 [B,E]4 | [B,E]-[B,-E-G][B,-EF][B,E] [B,E]-[B,-E-G][B,-EF][B,E] | %3
 [B,E]-[B,-E-G][B,-EF][B,E] z[K:bass] B,,^D,F, | [A,^DF]4 [DF]4 | [A,^DF]4 [DF]4 | %6
 [B,F]2- [A,B,FG]2 [CF]2- [A,CFG]2 | ^D2- [A,DA]2 [EG]4 | E-[EB] A2 [EG]4 | E-[EB]AG E-[EB]AG | %10
 C-[C-c][C-B][CA] [FAd]4 | [FA]-[F-A-c] [FAB]2 [CE]2 [B,D]2 | [B,E]-[B,-E-G] [B,EF]2 [G,B,E]2 z2 | %13
 x8 | [B,E]-[B,-E-G][B,-EF][B,E] [B,E]-[B,-E-G][B,-EF][B,E] | %15
 [B,E]-[B,-E-G][B,-EF][B,E] z[K:bass] B,,^D,F, | [A,^DF]4 [DF]4 | [A,^DF]4 [DF]4 | %18
 [B,F]2- [A,B,FG]2 [CF]2- [A,CFG]2 | ^D2- [A,DA]2 [EG]4 | E-[EB] A2 [EG]4 | E-[EB]AG E-[EB]AG | %22
 C-[C-c][C-B][CA] [FAd]4 | [FA]-[F-A-c] [FAB]2 [CE]2 [B,D]2 | [B,E]4 [B,E]4 | %25
 [G,B,]2- [G,B,F]2 E2 B,2 | [B,E]4 z4 | [CE]4 z4 | C4 z4 | x8 | [B,E]4 [^DFA]4 | %31
 z4 [B,EG]4[K:bass] | F2 G2 z2[K:bass] F,2 | x[K:treble] x7 | B,4 z4 | z4[K:bass] B,4 | x8 | %37
 GA z2 z2 ^D,2 | x8 | x8 | x8 | x8 | x8 | [B,E]4 [B,E]4 | [B,E]4 [B,E]4 | %45
 [B,E]-[B,-E-G][B,-EF][B,E] [B,E]-[B,-E-G][B,-EF][B,E] | %46
 [B,E]-[B,-E-G][B,-EF][B,E] z[K:bass] B,,^D,F, | [A,^DF]4 [DF]4 | [A,^DF]4 [DF]4 | %49
 [B,F]2- [A,B,FG]2 [CF]2- [A,CFG]2 | ^D2- [A,DA]2 [EG]4 | E-[EB] A2 [EG]4 | E-[EB]AG E-[EB]AG | %53
 C-[C-c][C-B][CA] [FAd]4 |[M:8/4] [FA]-[F-A-c] [FAB]2 [CE]2 [B,D]2 z8 |] %55
V:3
 z[K:treble] G F2[K:bass] G,G, F,2 | z[K:treble] G F2[K:bass] G,G, F,2 | B,,2 E,2 C,2 E,2 | %3
 B,,2 E,2 [B,^D]4 | z[K:treble] A G2[K:bass] z B,,^D,F, | z[K:treble] A G2 z A,G,[K:bass]F, | %6
 z[K:treble] A z F[K:bass] z A z F | z[K:treble] B[K:bass] F,2 [E,,B,,]2 E,2 | %8
 [B,,G,]2 [F,A,^D]2 [E,,D,]2 E,2 | [B,,G,]2 [F,A,^D]2 [E,,B,,]2 [E,B,]2 | %10
 [A,,E,]2 A,2 [D,,A,,]2 D,2 | [D,,A,,]2 z A G,,2 G,2 | [E,,B,,E,]2 B,,2 z2 B,2 | z2 ^D,2 z4 | %14
 E,,2- [E,,E,]2 C,2 E,2 | B,,2 E,2 [B,^D]4 | z[K:treble] A G2[K:bass] z B,,^D,F, | %17
 z[K:treble] A G2 z A,G,[K:bass]F, | z[K:treble] A z F[K:bass] z A z F | %19
 z[K:treble] B[K:bass] F,2 [E,,B,,]2 E,2 | [B,,G,]2 [F,A,^D]2 [E,,D,]2 E,2 | %21
 [B,,G,]2 [F,A,^D]2 [E,,B,,]2 [E,B,]2 | [A,,E,]2 A,2 [D,,A,,]2 D,2 | [D,,A,,]2 z A G,,2 G,2 | %24
 z[K:treble] G F2[K:bass] G,2 z ^D | [E,,B,,E,]4 G,2 A,2 | z4 G,2 z2 | z2 A,2 z4 | %28
 [A,,E,]2 A,2 E,2 z[K:treble] A/B/ | z2 A,2[K:treble] z4[K:bass] | z A E,,2 B,,2 z F | %31
 B,,2 F,2 E,,2 B,,2 | E,,2 [B,,E,]2 B,,2 ^D,2 | B,4 z4 | z2 ^D,2 z4 | B,,2 [^D,F,]2 A,,2 D,2 | %36
 [D,A,]2 G,,2 [B,,E,]2 F,,2 | [A,,E,]2 E,,4 B,,2 | G,,2 [B,,E,]A,, [E,A,]2 C,2 | %39
 B,,2 F,E,, [B,,^D,B,]2 [B,,E,]2 | C,2 E,A,, [E,A,]2 [B,,B,]2 | [F,A,]2 B,2- [^D,F,B,]2 z F | %42
 E,2 E,,2 E,4 | z[K:treble] G F2[K:bass] G,G, F,2 | z[K:treble] G F2[K:bass] G,G, F,2 | %45
 B,,2 E,2 C,2 E,2 | B,,2 E,2 [B,^D]4 | z[K:treble] A G2[K:bass] z B,,^D,F, | %48
 z[K:treble] A G2 z A,G,[K:bass]F, | z[K:treble] A z F[K:bass] z A z F | %50
 z[K:treble] B[K:bass] F,2 [E,,B,,]2 E,2 | [B,,G,]2 [F,A,^D]2 [E,,D,]2 E,2 | %52
 [B,,G,]2 [F,A,^D]2 [E,,B,,]2 [E,B,]2 | [A,,E,]2 A,2 [D,,A,,]2 D,2 | %54
[M:8/4] .[D,,A,,]3 A G,,2 G,2 z8 |] %55
V:4
 [E,,B,,E,]4[K:treble][K:bass] z4 | [E,,B,,E,]4[K:treble][K:bass] z4 | E,,4 E,,4 | E,,4 z4 | %4
 B,,4[K:treble][K:bass] B,4 | C,4[K:treble] C4[K:bass] | B,,2[K:treble] F,2[K:bass] C,2 F,2 | %7
 B,,2[K:treble][K:bass] z2 z4 | x8 | x8 | x8 | z2 D,2 z4 | z4 E,,4 | [E,,B,,E,]2 z E E,2 E,,2 | %14
 B,,2 z2 E,,4 | E,,4 z4 | B,,4[K:treble][K:bass] B,4 | C,4[K:treble] C4[K:bass] | %18
 B,,2[K:treble] F,2[K:bass] C,2 F,2 | B,,2[K:treble][K:bass] z2 z4 | x8 | x8 | x8 | z2 D,2 z4 | %24
 [E,,B,,E,]4[K:treble][K:bass] z2 F,2 | x8 | [E,,B,,E,]4 B,2- [E,B,]2 | C,2 z A B,,2 B,2 | %28
 z4 z2 E,,2[K:treble] | [A,,E,]2 z[K:treble] A A,2[K:bass] B,,2 | E,2 z2 z2 F,2 | x8 | x8 | %33
 B,,2 [^D,F,]2 A,,2 [D,F,]2 | G,,2 z E E,2 E,,2 | x8 | x8 | x8 | x8 | x8 | x8 | %41
 z2 [E,G,]2 z2 B,,2 | x8 | [E,,B,,E,]4[K:treble][K:bass] z4 | [E,,B,,E,]4[K:treble][K:bass] z4 | %45
 E,,4 E,,4 | E,,4 z4 | B,,4[K:treble][K:bass] B,4 | C,4[K:treble] C4[K:bass] | %49
 B,,2[K:treble] F,2[K:bass] C,2 F,2 | B,,2[K:treble][K:bass] z2 z4 | x8 | x8 | x8 | %54
[M:8/4] z2 D,2 z4 z8 |] %55
V:5
 x8 | x8 | x8 | x5[K:bass] x3 | x8 | x8 | x8 | x8 | x8 | x8 | x8 | x8 | x8 | x8 | x8 | %15
 x5[K:bass] x3 | x8 | x8 | x8 | x8 | x8 | x8 | x8 | x8 | x8 | x8 | x8 | x8 | x8 | x8 | x8 | %31
 z4 z2[K:bass] E,2 | x6[K:bass] x2 | x[K:treble] x7 | x8 | x4[K:bass] x4 | x8 | x8 | x8 | x8 | x8 | %41
 x8 | x8 | x8 | x8 | x8 | x5[K:bass] x3 | x8 | x8 | x8 | x8 | x8 | x8 | x8 |[M:8/4] x16 |] %55

